%
(Generated by SketchUcam V1.3a)
(File: TestAluminumCircle.skp)
(Bit diameter: 5.0mm)
(Feed rate: 500.0mm/min)
(Plunge Feed rate: 100.0mm/min)
(Material Thickness: 2.0mm)
(Material length: 2200.0mm X width: 1200.0mm)
(Overhead Gantry: true)
(Multipass enabled, Depth = 0.1mm)
(Optimization is ON)
(www.PhlatBoyz.com)
G90 G21 G49  G17
M3 S18000
G00 Z10.000
(Pass: 1)
 X26.277 Y20.940
G01 Z-0.100 F100 
G03 X37.5354 Y13.5426 R51.5900 F500 
 X50.3249 Y9.3114 R51.5900
 X63.7738 Y8.5345 R51.5900
 X76.9655 Y11.2648 R51.5900
 X89.0010 Y17.3164 R51.5900
 X99.0601 Y26.2768 R51.5900
 X106.4574 Y37.5354 R51.5900
 X110.6886 Y50.3249 R51.5900
 X111.4655 Y63.7738 R51.5900
 X108.7352 Y76.9655 R51.5900
 X102.6836 Y89.0010 R51.5900
 X93.7232 Y99.0601 R51.5900
 X82.4646 Y106.4574 R51.5900
 X69.6751 Y110.6886 R51.5900
 X56.2262 Y111.4655 R51.5900
 X43.0345 Y108.7352 R51.5900
 X30.9990 Y102.6836 R51.5900
 X20.9399 Y93.7232 R51.5900
 X13.5426 Y82.4646 R51.5900
 X9.3114 Y69.6751 R51.5900
 X8.5345 Y56.2262 R51.5900
 X11.2648 Y43.0345 R51.5900
 X17.3164 Y30.9990 R51.5900
 X26.2768 Y20.9399 R51.5900
(Pass: 2)
G01 Z-0.200 F100 
G03 X37.5354 Y13.5426 R51.5900 F500 
 X50.3249 Y9.3114 R51.5900
 X63.7738 Y8.5345 R51.5900
 X76.9655 Y11.2648 R51.5900
 X89.0010 Y17.3164 R51.5900
 X99.0601 Y26.2768 R51.5900
 X106.4574 Y37.5354 R51.5900
 X110.6886 Y50.3249 R51.5900
 X111.4655 Y63.7738 R51.5900
 X108.7352 Y76.9655 R51.5900
 X102.6836 Y89.0010 R51.5900
 X93.7232 Y99.0601 R51.5900
 X82.4646 Y106.4574 R51.5900
 X69.6751 Y110.6886 R51.5900
 X56.2262 Y111.4655 R51.5900
 X43.0345 Y108.7352 R51.5900
 X30.9990 Y102.6836 R51.5900
 X20.9399 Y93.7232 R51.5900
 X13.5426 Y82.4646 R51.5900
 X9.3114 Y69.6751 R51.5900
 X8.5345 Y56.2262 R51.5900
 X11.2648 Y43.0345 R51.5900
 X17.3164 Y30.9990 R51.5900
 X26.2768 Y20.9399 R51.5900
(Pass: 3)
G01 Z-0.300 F100 
G03 X37.5354 Y13.5426 R51.5900 F500 
 X50.3249 Y9.3114 R51.5900
 X63.7738 Y8.5345 R51.5900
 X76.9655 Y11.2648 R51.5900
 X89.0010 Y17.3164 R51.5900
 X99.0601 Y26.2768 R51.5900
 X106.4574 Y37.5354 R51.5900
 X110.6886 Y50.3249 R51.5900
 X111.4655 Y63.7738 R51.5900
 X108.7352 Y76.9655 R51.5900
 X102.6836 Y89.0010 R51.5900
 X93.7232 Y99.0601 R51.5900
 X82.4646 Y106.4574 R51.5900
 X69.6751 Y110.6886 R51.5900
 X56.2262 Y111.4655 R51.5900
 X43.0345 Y108.7352 R51.5900
 X30.9990 Y102.6836 R51.5900
 X20.9399 Y93.7232 R51.5900
 X13.5426 Y82.4646 R51.5900
 X9.3114 Y69.6751 R51.5900
 X8.5345 Y56.2262 R51.5900
 X11.2648 Y43.0345 R51.5900
 X17.3164 Y30.9990 R51.5900
 X26.2768 Y20.9399 R51.5900
(Pass: 4)
G01 Z-0.400 F100 
G03 X37.5354 Y13.5426 R51.5900 F500 
 X50.3249 Y9.3114 R51.5900
 X63.7738 Y8.5345 R51.5900
 X76.9655 Y11.2648 R51.5900
 X89.0010 Y17.3164 R51.5900
 X99.0601 Y26.2768 R51.5900
 X106.4574 Y37.5354 R51.5900
 X110.6886 Y50.3249 R51.5900
 X111.4655 Y63.7738 R51.5900
 X108.7352 Y76.9655 R51.5900
 X102.6836 Y89.0010 R51.5900
 X93.7232 Y99.0601 R51.5900
 X82.4646 Y106.4574 R51.5900
 X69.6751 Y110.6886 R51.5900
 X56.2262 Y111.4655 R51.5900
 X43.0345 Y108.7352 R51.5900
 X30.9990 Y102.6836 R51.5900
 X20.9399 Y93.7232 R51.5900
 X13.5426 Y82.4646 R51.5900
 X9.3114 Y69.6751 R51.5900
 X8.5345 Y56.2262 R51.5900
 X11.2648 Y43.0345 R51.5900
 X17.3164 Y30.9990 R51.5900
 X26.2768 Y20.9399 R51.5900
(Pass: 5)
G01 Z-0.500 F100 
G03 X37.5354 Y13.5426 R51.5900 F500 
 X50.3249 Y9.3114 R51.5900
 X63.7738 Y8.5345 R51.5900
 X76.9655 Y11.2648 R51.5900
 X89.0010 Y17.3164 R51.5900
 X99.0601 Y26.2768 R51.5900
 X106.4574 Y37.5354 R51.5900
 X110.6886 Y50.3249 R51.5900
 X111.4655 Y63.7738 R51.5900
 X108.7352 Y76.9655 R51.5900
 X102.6836 Y89.0010 R51.5900
 X93.7232 Y99.0601 R51.5900
 X82.4646 Y106.4574 R51.5900
 X69.6751 Y110.6886 R51.5900
 X56.2262 Y111.4655 R51.5900
 X43.0345 Y108.7352 R51.5900
 X30.9990 Y102.6836 R51.5900
 X20.9399 Y93.7232 R51.5900
 X13.5426 Y82.4646 R51.5900
 X9.3114 Y69.6751 R51.5900
 X8.5345 Y56.2262 R51.5900
 X11.2648 Y43.0345 R51.5900
 X17.3164 Y30.9990 R51.5900
 X26.2768 Y20.9399 R51.5900
(Pass: 6)
G01 Z-0.600 F100 
G03 X37.5354 Y13.5426 R51.5900 F500 
 X50.3249 Y9.3114 R51.5900
 X63.7738 Y8.5345 R51.5900
 X76.9655 Y11.2648 R51.5900
 X89.0010 Y17.3164 R51.5900
 X99.0601 Y26.2768 R51.5900
 X106.4574 Y37.5354 R51.5900
 X110.6886 Y50.3249 R51.5900
 X111.4655 Y63.7738 R51.5900
 X108.7352 Y76.9655 R51.5900
 X102.6836 Y89.0010 R51.5900
 X93.7232 Y99.0601 R51.5900
 X82.4646 Y106.4574 R51.5900
 X69.6751 Y110.6886 R51.5900
 X56.2262 Y111.4655 R51.5900
 X43.0345 Y108.7352 R51.5900
 X30.9990 Y102.6836 R51.5900
 X20.9399 Y93.7232 R51.5900
 X13.5426 Y82.4646 R51.5900
 X9.3114 Y69.6751 R51.5900
 X8.5345 Y56.2262 R51.5900
 X11.2648 Y43.0345 R51.5900
 X17.3164 Y30.9990 R51.5900
 X26.2768 Y20.9399 R51.5900
(Pass: 7)
G01 Z-0.700 F100 
G03 X37.5354 Y13.5426 R51.5900 F500 
 X50.3249 Y9.3114 R51.5900
 X63.7738 Y8.5345 R51.5900
 X76.9655 Y11.2648 R51.5900
 X89.0010 Y17.3164 R51.5900
 X99.0601 Y26.2768 R51.5900
 X106.4574 Y37.5354 R51.5900
 X110.6886 Y50.3249 R51.5900
 X111.4655 Y63.7738 R51.5900
 X108.7352 Y76.9655 R51.5900
 X102.6836 Y89.0010 R51.5900
 X93.7232 Y99.0601 R51.5900
 X82.4646 Y106.4574 R51.5900
 X69.6751 Y110.6886 R51.5900
 X56.2262 Y111.4655 R51.5900
 X43.0345 Y108.7352 R51.5900
 X30.9990 Y102.6836 R51.5900
 X20.9399 Y93.7232 R51.5900
 X13.5426 Y82.4646 R51.5900
 X9.3114 Y69.6751 R51.5900
 X8.5345 Y56.2262 R51.5900
 X11.2648 Y43.0345 R51.5900
 X17.3164 Y30.9990 R51.5900
 X26.2768 Y20.9399 R51.5900
(Pass: 8)
G01 Z-0.800 F100 
G03 X37.5354 Y13.5426 R51.5900 F500 
 X50.3249 Y9.3114 R51.5900
 X63.7738 Y8.5345 R51.5900
 X76.9655 Y11.2648 R51.5900
 X89.0010 Y17.3164 R51.5900
 X99.0601 Y26.2768 R51.5900
 X106.4574 Y37.5354 R51.5900
 X110.6886 Y50.3249 R51.5900
 X111.4655 Y63.7738 R51.5900
 X108.7352 Y76.9655 R51.5900
 X102.6836 Y89.0010 R51.5900
 X93.7232 Y99.0601 R51.5900
 X82.4646 Y106.4574 R51.5900
 X69.6751 Y110.6886 R51.5900
 X56.2262 Y111.4655 R51.5900
 X43.0345 Y108.7352 R51.5900
 X30.9990 Y102.6836 R51.5900
 X20.9399 Y93.7232 R51.5900
 X13.5426 Y82.4646 R51.5900
 X9.3114 Y69.6751 R51.5900
 X8.5345 Y56.2262 R51.5900
 X11.2648 Y43.0345 R51.5900
 X17.3164 Y30.9990 R51.5900
 X26.2768 Y20.9399 R51.5900
(Pass: 9)
G01 Z-0.900 F100 
G03 X37.5354 Y13.5426 R51.5900 F500 
 X50.3249 Y9.3114 R51.5900
 X63.7738 Y8.5345 R51.5900
 X76.9655 Y11.2648 R51.5900
 X89.0010 Y17.3164 R51.5900
 X99.0601 Y26.2768 R51.5900
 X106.4574 Y37.5354 R51.5900
 X110.6886 Y50.3249 R51.5900
 X111.4655 Y63.7738 R51.5900
 X108.7352 Y76.9655 R51.5900
 X102.6836 Y89.0010 R51.5900
 X93.7232 Y99.0601 R51.5900
 X82.4646 Y106.4574 R51.5900
 X69.6751 Y110.6886 R51.5900
 X56.2262 Y111.4655 R51.5900
 X43.0345 Y108.7352 R51.5900
 X30.9990 Y102.6836 R51.5900
 X20.9399 Y93.7232 R51.5900
 X13.5426 Y82.4646 R51.5900
 X9.3114 Y69.6751 R51.5900
 X8.5345 Y56.2262 R51.5900
 X11.2648 Y43.0345 R51.5900
 X17.3164 Y30.9990 R51.5900
 X26.2768 Y20.9399 R51.5900
(Pass: 10)
G01 Z-1.000 F100 
G03 X37.5354 Y13.5426 R51.5900 F500 
 X50.3249 Y9.3114 R51.5900
 X63.7738 Y8.5345 R51.5900
 X76.9655 Y11.2648 R51.5900
 X89.0010 Y17.3164 R51.5900
 X99.0601 Y26.2768 R51.5900
 X106.4574 Y37.5354 R51.5900
 X110.6886 Y50.3249 R51.5900
 X111.4655 Y63.7738 R51.5900
 X108.7352 Y76.9655 R51.5900
 X102.6836 Y89.0010 R51.5900
 X93.7232 Y99.0601 R51.5900
 X82.4646 Y106.4574 R51.5900
 X69.6751 Y110.6886 R51.5900
 X56.2262 Y111.4655 R51.5900
 X43.0345 Y108.7352 R51.5900
 X30.9990 Y102.6836 R51.5900
 X20.9399 Y93.7232 R51.5900
 X13.5426 Y82.4646 R51.5900
 X9.3114 Y69.6751 R51.5900
 X8.5345 Y56.2262 R51.5900
 X11.2648 Y43.0345 R51.5900
 X17.3164 Y30.9990 R51.5900
 X26.2768 Y20.9399 R51.5900
(Pass: 11)
G01 Z-1.100 F100 
G03 X37.5354 Y13.5426 R51.5900 F500 
 X50.3249 Y9.3114 R51.5900
 X63.7738 Y8.5345 R51.5900
 X76.9655 Y11.2648 R51.5900
 X89.0010 Y17.3164 R51.5900
 X99.0601 Y26.2768 R51.5900
 X106.4574 Y37.5354 R51.5900
 X110.6886 Y50.3249 R51.5900
 X111.4655 Y63.7738 R51.5900
 X108.7352 Y76.9655 R51.5900
 X102.6836 Y89.0010 R51.5900
 X93.7232 Y99.0601 R51.5900
 X82.4646 Y106.4574 R51.5900
 X69.6751 Y110.6886 R51.5900
 X56.2262 Y111.4655 R51.5900
 X43.0345 Y108.7352 R51.5900
 X30.9990 Y102.6836 R51.5900
 X20.9399 Y93.7232 R51.5900
 X13.5426 Y82.4646 R51.5900
 X9.3114 Y69.6751 R51.5900
 X8.5345 Y56.2262 R51.5900
 X11.2648 Y43.0345 R51.5900
 X17.3164 Y30.9990 R51.5900
 X26.2768 Y20.9399 R51.5900
(Pass: 12)
G01 Z-1.200 F100 
G03 X37.5354 Y13.5426 R51.5900 F500 
 X50.3249 Y9.3114 R51.5900
 X63.7738 Y8.5345 R51.5900
 X76.9655 Y11.2648 R51.5900
 X89.0010 Y17.3164 R51.5900
 X99.0601 Y26.2768 R51.5900
 X106.4574 Y37.5354 R51.5900
 X110.6886 Y50.3249 R51.5900
 X111.4655 Y63.7738 R51.5900
 X108.7352 Y76.9655 R51.5900
 X102.6836 Y89.0010 R51.5900
 X93.7232 Y99.0601 R51.5900
 X82.4646 Y106.4574 R51.5900
 X69.6751 Y110.6886 R51.5900
 X56.2262 Y111.4655 R51.5900
 X43.0345 Y108.7352 R51.5900
 X30.9990 Y102.6836 R51.5900
 X20.9399 Y93.7232 R51.5900
 X13.5426 Y82.4646 R51.5900
 X9.3114 Y69.6751 R51.5900
 X8.5345 Y56.2262 R51.5900
 X11.2648 Y43.0345 R51.5900
 X17.3164 Y30.9990 R51.5900
 X26.2768 Y20.9399 R51.5900
(Pass: 13)
G01 Z-1.300 F100 
G03 X37.5354 Y13.5426 R51.5900 F500 
 X50.3249 Y9.3114 R51.5900
 X63.7738 Y8.5345 R51.5900
 X76.9655 Y11.2648 R51.5900
 X89.0010 Y17.3164 R51.5900
 X99.0601 Y26.2768 R51.5900
 X106.4574 Y37.5354 R51.5900
 X110.6886 Y50.3249 R51.5900
 X111.4655 Y63.7738 R51.5900
 X108.7352 Y76.9655 R51.5900
 X102.6836 Y89.0010 R51.5900
 X93.7232 Y99.0601 R51.5900
 X82.4646 Y106.4574 R51.5900
 X69.6751 Y110.6886 R51.5900
 X56.2262 Y111.4655 R51.5900
 X43.0345 Y108.7352 R51.5900
 X30.9990 Y102.6836 R51.5900
 X20.9399 Y93.7232 R51.5900
 X13.5426 Y82.4646 R51.5900
 X9.3114 Y69.6751 R51.5900
 X8.5345 Y56.2262 R51.5900
 X11.2648 Y43.0345 R51.5900
 X17.3164 Y30.9990 R51.5900
 X26.2768 Y20.9399 R51.5900
(Pass: 14)
G01 Z-1.400 F100 
G03 X37.5354 Y13.5426 R51.5900 F500 
 X50.3249 Y9.3114 R51.5900
 X63.7738 Y8.5345 R51.5900
 X76.9655 Y11.2648 R51.5900
 X89.0010 Y17.3164 R51.5900
 X99.0601 Y26.2768 R51.5900
 X106.4574 Y37.5354 R51.5900
 X110.6886 Y50.3249 R51.5900
 X111.4655 Y63.7738 R51.5900
 X108.7352 Y76.9655 R51.5900
 X102.6836 Y89.0010 R51.5900
 X93.7232 Y99.0601 R51.5900
 X82.4646 Y106.4574 R51.5900
 X69.6751 Y110.6886 R51.5900
 X56.2262 Y111.4655 R51.5900
 X43.0345 Y108.7352 R51.5900
 X30.9990 Y102.6836 R51.5900
 X20.9399 Y93.7232 R51.5900
 X13.5426 Y82.4646 R51.5900
 X9.3114 Y69.6751 R51.5900
 X8.5345 Y56.2262 R51.5900
 X11.2648 Y43.0345 R51.5900
 X17.3164 Y30.9990 R51.5900
 X26.2768 Y20.9399 R51.5900
(Pass: 15)
G01 Z-1.500 F100 
G03 X37.5354 Y13.5426 R51.5900 F500 
 X50.3249 Y9.3114 R51.5900
 X63.7738 Y8.5345 R51.5900
 X76.9655 Y11.2648 R51.5900
 X89.0010 Y17.3164 R51.5900
 X99.0601 Y26.2768 R51.5900
 X106.4574 Y37.5354 R51.5900
 X110.6886 Y50.3249 R51.5900
 X111.4655 Y63.7738 R51.5900
 X108.7352 Y76.9655 R51.5900
 X102.6836 Y89.0010 R51.5900
 X93.7232 Y99.0601 R51.5900
 X82.4646 Y106.4574 R51.5900
 X69.6751 Y110.6886 R51.5900
 X56.2262 Y111.4655 R51.5900
 X43.0345 Y108.7352 R51.5900
 X30.9990 Y102.6836 R51.5900
 X20.9399 Y93.7232 R51.5900
 X13.5426 Y82.4646 R51.5900
 X9.3114 Y69.6751 R51.5900
 X8.5345 Y56.2262 R51.5900
 X11.2648 Y43.0345 R51.5900
 X17.3164 Y30.9990 R51.5900
 X26.2768 Y20.9399 R51.5900
(Pass: 16)
G01 Z-1.600 F100 
G03 X37.5354 Y13.5426 R51.5900 F500 
 X50.3249 Y9.3114 R51.5900
 X63.7738 Y8.5345 R51.5900
 X76.9655 Y11.2648 R51.5900
 X89.0010 Y17.3164 R51.5900
 X99.0601 Y26.2768 R51.5900
 X106.4574 Y37.5354 R51.5900
 X110.6886 Y50.3249 R51.5900
 X111.4655 Y63.7738 R51.5900
 X108.7352 Y76.9655 R51.5900
 X102.6836 Y89.0010 R51.5900
 X93.7232 Y99.0601 R51.5900
 X82.4646 Y106.4574 R51.5900
 X69.6751 Y110.6886 R51.5900
 X56.2262 Y111.4655 R51.5900
 X43.0345 Y108.7352 R51.5900
 X30.9990 Y102.6836 R51.5900
 X20.9399 Y93.7232 R51.5900
 X13.5426 Y82.4646 R51.5900
 X9.3114 Y69.6751 R51.5900
 X8.5345 Y56.2262 R51.5900
 X11.2648 Y43.0345 R51.5900
 X17.3164 Y30.9990 R51.5900
 X26.2768 Y20.9399 R51.5900
(Pass: 17)
G01 Z-1.700 F100 
G03 X37.5354 Y13.5426 R51.5900 F500 
 X50.3249 Y9.3114 R51.5900
 X63.7738 Y8.5345 R51.5900
 X76.9655 Y11.2648 R51.5900
 X89.0010 Y17.3164 R51.5900
 X99.0601 Y26.2768 R51.5900
 X106.4574 Y37.5354 R51.5900
 X110.6886 Y50.3249 R51.5900
 X111.4655 Y63.7738 R51.5900
 X108.7352 Y76.9655 R51.5900
 X102.6836 Y89.0010 R51.5900
 X93.7232 Y99.0601 R51.5900
 X82.4646 Y106.4574 R51.5900
 X69.6751 Y110.6886 R51.5900
 X56.2262 Y111.4655 R51.5900
 X43.0345 Y108.7352 R51.5900
 X30.9990 Y102.6836 R51.5900
 X20.9399 Y93.7232 R51.5900
 X13.5426 Y82.4646 R51.5900
 X9.3114 Y69.6751 R51.5900
 X8.5345 Y56.2262 R51.5900
 X11.2648 Y43.0345 R51.5900
 X17.3164 Y30.9990 R51.5900
 X26.2768 Y20.9399 R51.5900
(Pass: 18)
G01 Z-1.800 F100 
G03 X37.5354 Y13.5426 R51.5900 F500 
 X50.3249 Y9.3114 R51.5900
 X63.7738 Y8.5345 R51.5900
 X76.9655 Y11.2648 R51.5900
 X89.0010 Y17.3164 R51.5900
 X99.0601 Y26.2768 R51.5900
 X106.4574 Y37.5354 R51.5900
 X110.6886 Y50.3249 R51.5900
 X111.4655 Y63.7738 R51.5900
 X108.7352 Y76.9655 R51.5900
 X102.6836 Y89.0010 R51.5900
 X93.7232 Y99.0601 R51.5900
 X82.4646 Y106.4574 R51.5900
 X69.6751 Y110.6886 R51.5900
 X56.2262 Y111.4655 R51.5900
 X43.0345 Y108.7352 R51.5900
 X30.9990 Y102.6836 R51.5900
 X20.9399 Y93.7232 R51.5900
 X13.5426 Y82.4646 R51.5900
 X9.3114 Y69.6751 R51.5900
 X8.5345 Y56.2262 R51.5900
 X11.2648 Y43.0345 R51.5900
 X17.3164 Y30.9990 R51.5900
 X26.2768 Y20.9399 R51.5900
(Pass: 19)
G01 Z-1.900 F100 
G03 X37.5354 Y13.5426 R51.5900 F500 
 X50.3249 Y9.3114 R51.5900
 X63.7738 Y8.5345 R51.5900
 X76.9655 Y11.2648 R51.5900
 X89.0010 Y17.3164 R51.5900
 X99.0601 Y26.2768 R51.5900
 X106.4574 Y37.5354 R51.5900
 X110.6886 Y50.3249 R51.5900
 X111.4655 Y63.7738 R51.5900
 X108.7352 Y76.9655 R51.5900
 X102.6836 Y89.0010 R51.5900
 X93.7232 Y99.0601 R51.5900
 X82.4646 Y106.4574 R51.5900
 X69.6751 Y110.6886 R51.5900
 X56.2262 Y111.4655 R51.5900
 X43.0345 Y108.7352 R51.5900
 X30.9990 Y102.6836 R51.5900
 X20.9399 Y93.7232 R51.5900
 X13.5426 Y82.4646 R51.5900
 X9.3114 Y69.6751 R51.5900
 X8.5345 Y56.2262 R51.5900
 X11.2648 Y43.0345 R51.5900
 X17.3164 Y30.9990 R51.5900
 X26.2768 Y20.9399 R51.5900
(Pass: 20)
G01 Z-2.000 F100 
G03 X37.5354 Y13.5426 R51.5900 F500 
 X50.3249 Y9.3114 R51.5900
 X63.7738 Y8.5345 R51.5900
 X76.9655 Y11.2648 R51.5900
 X89.0010 Y17.3164 R51.5900
 X99.0601 Y26.2768 R51.5900
 X106.4574 Y37.5354 R51.5900
 X110.6886 Y50.3249 R51.5900
 X111.4655 Y63.7738 R51.5900
 X108.7352 Y76.9655 R51.5900
 X102.6836 Y89.0010 R51.5900
 X93.7232 Y99.0601 R51.5900
 X82.4646 Y106.4574 R51.5900
 X69.6751 Y110.6886 R51.5900
 X56.2262 Y111.4655 R51.5900
 X43.0345 Y108.7352 R51.5900
 X30.9990 Y102.6836 R51.5900
 X20.9399 Y93.7232 R51.5900
 X13.5426 Y82.4646 R51.5900
 X9.3114 Y69.6751 R51.5900
 X8.5345 Y56.2262 R51.5900
 X11.2648 Y43.0345 R51.5900
 X17.3164 Y30.9990 R51.5900
 X26.2768 Y20.9399 R51.5900
(Pass: 21)
G01 Z-2.100 F100 
G03 X37.5354 Y13.5426 R51.5900 F500 
 X50.3249 Y9.3114 R51.5900
 X63.7738 Y8.5345 R51.5900
 X76.9655 Y11.2648 R51.5900
 X89.0010 Y17.3164 R51.5900
 X99.0601 Y26.2768 R51.5900
 X106.4574 Y37.5354 R51.5900
 X110.6886 Y50.3249 R51.5900
 X111.4655 Y63.7738 R51.5900
 X108.7352 Y76.9655 R51.5900
 X102.6836 Y89.0010 R51.5900
 X93.7232 Y99.0601 R51.5900
 X82.4646 Y106.4574 R51.5900
 X69.6751 Y110.6886 R51.5900
 X56.2262 Y111.4655 R51.5900
 X43.0345 Y108.7352 R51.5900
 X30.9990 Y102.6836 R51.5900
 X20.9399 Y93.7232 R51.5900
 X13.5426 Y82.4646 R51.5900
 X9.3114 Y69.6751 R51.5900
 X8.5345 Y56.2262 R51.5900
 X11.2648 Y43.0345 R51.5900
 X17.3164 Y30.9990 R51.5900
 X26.2768 Y20.9399 R51.5900
(Pass: 22)
G01 Z-2.200 F100 
G03 X37.5354 Y13.5426 R51.5900 F500 
 X50.3249 Y9.3114 R51.5900
 X63.7738 Y8.5345 R51.5900
 X76.9655 Y11.2648 R51.5900
 X89.0010 Y17.3164 R51.5900
 X99.0601 Y26.2768 R51.5900
 X106.4574 Y37.5354 R51.5900
 X110.6886 Y50.3249 R51.5900
 X111.4655 Y63.7738 R51.5900
 X108.7352 Y76.9655 R51.5900
 X102.6836 Y89.0010 R51.5900
 X93.7232 Y99.0601 R51.5900
 X82.4646 Y106.4574 R51.5900
 X69.6751 Y110.6886 R51.5900
 X56.2262 Y111.4655 R51.5900
 X43.0345 Y108.7352 R51.5900
 X30.9990 Y102.6836 R51.5900
 X20.9399 Y93.7232 R51.5900
 X13.5426 Y82.4646 R51.5900
 X9.3114 Y69.6751 R51.5900
 X8.5345 Y56.2262 R51.5900
 X11.2648 Y43.0345 R51.5900
 X17.3164 Y30.9990 R51.5900
 X26.2768 Y20.9399 R51.5900
(BREAK pass 22)
G00 Z10.000
G00 X0 Y0 (home)
M05
M30
%
